dist/img/references/lpp.svg

<svg width="105" height="40" viewBox="0 0 105 40" fill="none" xmlns="http://www.w3.org/2000/svg">
<g clip-path="url(#clip0_4022_948)">
<path d="M9.05545 31.7638V0.375H0.384766V39.6249H26.073V31.7638H9.05545Z" fill="black"/>
<path d="M50.2178 0.375H36.6533V39.6249H45.3282V8.16962H49.4829C53.8189 8.16962 56.5218 10.247 56.5218 14.1152V14.2246C56.5218 17.5904 53.9878 20.1674 49.6531 20.1674H47.8332V27.8499H49.3708C58.2117 27.8499 65.3074 23.1402 65.3074 14.0599V13.9478C65.3074 5.92617 59.6206 0.375 50.2192 0.375" fill="black"/>
<path d="M89.4317 0.375H75.8687V39.6249H84.5435V8.16962H88.6982C93.0343 8.16962 95.7372 10.247 95.7372 14.1152V14.2246C95.7372 17.5904 93.2003 20.1674 88.8657 20.1674H87.0457V27.8499H88.5833C97.4256 27.8499 104.52 23.1402 104.52 14.0599V13.9478C104.52 5.92617 98.8345 0.375 89.4317 0.375Z" fill="black"/>
</g>
<defs>
<clipPath id="clip0_4022_948">
<rect width="104.906" height="40" fill="white"/>
</clipPath>
</defs>
</svg>

<svg width="105" height="40" viewBox="0 0 105 40" fill="none" xmlns="http://www.w3.org/2000/svg"><g clip-path="url(#clip0_4022_948)" fill="#000"><path d="M9.055 31.764V.375H.385v39.25h25.688v-7.861H9.055zM50.218.375H36.653v39.25h8.675V8.17h4.155c4.336 0 7.039 2.077 7.039 5.945v.11c0 3.365-2.534 5.942-6.869 5.942h-1.82v7.683h1.538c8.84 0 15.936-4.71 15.936-13.79v-.112C65.307 5.926 59.621.375 50.22.375m39.212 0H75.869v39.25h8.674V8.17h4.155c4.336 0 7.04 2.077 7.04 5.945v.11c0 3.365-2.538 5.942-6.872 5.942h-1.82v7.683h1.537c8.843 0 15.937-4.71 15.937-13.79v-.112c0-8.022-5.685-13.573-15.088-13.573z"/></g><defs><clipPath id="clip0_4022_948"><rect width="104.906" height="40" fill="#fff"/></clipPath></defs></svg>
